src/lib/packages/icons/src/assets/line/phone.svg

<svg width="24" height="24" viewBox="0 0 24 24" fill="none" xmlns="http://www.w3.org/2000/svg">
<path d="M16.5521 21.752C16.0931 21.752 15.6311 21.69 15.1751 21.565C9.01011 19.873 4.12909 14.995 2.43609 8.83402C2.05109 7.43302 2.26204 5.97301 3.03204 4.72501C3.80504 3.47101 5.0761 2.58601 6.5191 2.29801C7.4791 2.10601 8.4281 2.53401 8.9151 3.35501L10.4781 5.995C11.2371 7.277 10.86 8.928 9.61896 9.754L8.4881 10.506C9.5451 12.676 11.3229 14.459 13.4839 15.515L14.2462 14.378C15.0772 13.139 16.7281 12.768 18.0091 13.531L20.6522 15.107C21.4702 15.595 21.8931 16.55 21.7071 17.482C21.4191 18.925 20.5341 20.196 19.2811 20.969C18.4391 21.487 17.5021 21.752 16.5521 21.752ZM6.97809 3.75C6.92909 3.75 6.87911 3.75502 6.83111 3.76502C5.77711 3.97602 4.86412 4.611 4.31012 5.512C3.76112 6.402 3.61009 7.44101 3.88409 8.43601C5.43709 14.089 9.91608 18.566 15.5721 20.118C16.5681 20.391 17.604 20.239 18.493 19.691C19.393 19.136 20.0291 18.222 20.2361 17.186C20.2981 16.875 20.1571 16.556 19.8831 16.393L17.241 14.817C16.646 14.463 15.878 14.636 15.492 15.211L14.377 16.876C14.177 17.174 13.7911 17.288 13.4651 17.15C10.5021 15.911 8.09113 13.495 6.85113 10.521C6.71313 10.189 6.82899 9.807 7.12799 9.608L8.78912 8.50299C9.36512 8.11999 9.54007 7.353 9.18707 6.758L7.62408 4.11899C7.48708 3.88699 7.23909 3.75 6.97809 3.75Z" fill="currentColor"/>
</svg>

<svg xmlns="http://www.w3.org/2000/svg" width="24" height="24" fill="none"><path fill="currentColor" d="M16.552 21.752c-.459 0-.92-.062-1.377-.187C9.01 19.873 4.13 14.995 2.436 8.834a5.15 5.15 0 0 1 .596-4.109 5.338 5.338 0 0 1 3.487-2.427 2.255 2.255 0 0 1 2.396 1.057l1.563 2.64a2.8 2.8 0 0 1-.859 3.759l-1.13.752a10.931 10.931 0 0 0 4.995 5.009l.762-1.137a2.801 2.801 0 0 1 3.763-.847l2.643 1.576a2.256 2.256 0 0 1 1.055 2.375 5.34 5.34 0 0 1-2.426 3.487 5.19 5.19 0 0 1-2.729.783ZM6.978 3.75a.726.726 0 0 0-.147.015 3.84 3.84 0 0 0-2.52 1.747c-.55.89-.7 1.929-.427 2.924 1.553 5.653 6.032 10.13 11.688 11.682a3.664 3.664 0 0 0 2.921-.427 3.838 3.838 0 0 0 1.743-2.505.753.753 0 0 0-.353-.793l-2.642-1.576a1.304 1.304 0 0 0-1.749.394l-1.115 1.665a.751.751 0 0 1-.912.274 12.412 12.412 0 0 1-6.614-6.629.75.75 0 0 1 .277-.913l1.661-1.105a1.3 1.3 0 0 0 .398-1.745L7.624 4.119a.75.75 0 0 0-.646-.369Z"/></svg>
